src/24/actions/view-bank-account-checking.svg

<svg xmlns="http://www.w3.org/2000/svg" viewBox="0 0 24 24">
  <defs id="defs3051">
    <style type="text/css" id="current-color-scheme">
      .ColorScheme-Text {
        color:#5d656b;
      }
      .ColorScheme-NegativeText {
        color:#da4453;
      }
      </style>
  </defs>
  <path
     style="fill:currentColor;fill-opacity:1;stroke:none" 
     d="M 4 4 L 4 6 L 4 7 L 4 20 L 11 20 L 11 19 L 5 19 L 5 8 L 19 8 L 19 13 L 20 13 L 20 4 L 18 4 L 18 6 L 16 6 L 16 4 L 13 4 L 13 6 L 11 6 L 11 4 L 8 4 L 8 6 L 6 6 L 6 4 L 4 4 z M 8.5 9 C 7.115 9 6 10.1152 6 11.5 C 6 11.93344 6.1180469 12.334793 6.3105469 12.689453 L 7.0703125 11.929688 C 7.0293125 11.792607 7 11.65078 7 11.5 C 7 10.66912 7.669 10 8.5 10 C 8.65079 10 8.7925975 10.029313 8.9296875 10.070312 L 9.6894531 9.3105469 C 9.3348031 9.1180769 8.93343 9 8.5 9 z M 10.689453 10.310547 L 9.9296875 11.070312 C 9.9706875 11.207293 10 11.34922 10 11.5 C 10 12.33089 9.331 13 8.5 13 C 8.34921 13 8.2074025 12.970688 8.0703125 12.929688 L 7.3105469 13.689453 C 7.6651869 13.881923 8.06657 14 8.5 14 C 9.885 14 11 12.88481 11 11.5 C 11 11.06666 10.881953 10.665097 10.689453 10.310547 z M 12 14 L 12 20 L 20 20 L 20 14 L 12 14 z M 13 15 L 19 15 L 19 16 L 18 16 L 18 18 L 19 18 L 19 19 L 13 19 L 13 18 L 14 18 L 14 16 L 13 16 L 13 15 z M 16 16 C 15.446 16 15 16.446 15 17 C 15 17.554 15.446 18 16 18 C 16.554 18 17 17.554 17 17 C 17 16.446 16.554 16 16 16 z "
     class="ColorScheme-Text"
     />
</svg>

<svg xmlns="http://www.w3.org/2000/svg" viewBox="0 0 24 24"><defs id="defs3051"><style type="text/css" id="current-color-scheme"></style></defs><path d="M4 4v16h7v-1H5V8h14v5h1V4h-2v2h-2V4h-3v2h-2V4H8v2H6V4H4zm4.5 5A2.495 2.495 0 0 0 6 11.5c0 .433.118.835.31 1.19l.76-.76A1.489 1.489 0 0 1 7 11.5c0-.83.669-1.5 1.5-1.5.15 0 .293.03.43.07l.76-.76A2.482 2.482 0 0 0 8.5 9zm2.19 1.31l-.76.76c.04.137.07.28.07.43 0 .83-.669 1.5-1.5 1.5-.15 0-.293-.03-.43-.07l-.76.76c.355.192.757.31 1.19.31 1.385 0 2.5-1.115 2.5-2.5 0-.433-.118-.835-.31-1.19zM12 14v6h8v-6h-8zm1 1h6v1h-1v2h1v1h-6v-1h1v-2h-1v-1zm3 1c-.554 0-1 .446-1 1s.446 1 1 1 1-.446 1-1-.446-1-1-1z" fill="currentColor" color="#5d656b"/></svg>
